X:1
T:Lady Dumfries
R:Reel
B:The Athole Collection
M:C|
L:1/8
K:F
   A | "F"F2AB     cAag | "(Bb)"fdcA "C7"GFGA | "F"F2AB     cAag | "F"fcba "C7"g2 "F"f :|
|: g | "F"fgaf "Bb"gefd |  "F"  cAFA "C7"GFDg | "F"fgaf "Bb"gefd | "F"cAba "C7"g2 "F"f :|
